X:7
T:The Kesh Jig
M:6/8
B:Bulmer & Sharpley
A:Ireland
R:Jig
K:G
D| "G"GFG GAB | "D"~A3 ABd | "G"edd gdd | edB "D"dBA | 
"G"GFG GAB | "D"ABA ABd | "G"edd gdB | "D"AGF "G"G2 :|
A|"G"BAB dBd | "C"ege "G"dBG | BAB dBG | "D"ABA AGA |
"G"BAB dBd | "C"ege "G"dBd | "C"gfg "D"aga | "G"bgg g2 :|
